packages/react-icons/icons/reinstate.svg

<svg width="24" height="24" viewBox="0 0 24 24" xmlns="http://www.w3.org/2000/svg"><path fill-rule="evenodd" clip-rule="evenodd" d="M3.90001 12C3.90001 7.52647 7.5265 3.89998 12 3.89998C16.4735 3.89998 20.1 7.52647 20.1 12C20.1 16.4735 16.4735 20.1 12 20.1C7.5265 20.1 3.90001 16.4735 3.90001 12ZM12 2.09998C6.53239 2.09998 2.10001 6.53236 2.10001 12C2.10001 17.4676 6.53239 21.9 12 21.9C17.4676 21.9 21.9 17.4676 21.9 12C21.9 6.53236 17.4676 2.09998 12 2.09998ZM9.42354 7.20586C9.14459 7.05709 8.80804 7.06558 8.53696 7.22823C8.26588 7.39088 8.10001 7.68384 8.10001 7.99998V16C8.10001 16.3161 8.26588 16.6091 8.53696 16.7717C8.80804 16.9344 9.14459 16.9429 9.42354 16.7941L16.9235 12.7941C17.2168 12.6377 17.4 12.3324 17.4 12C17.4 11.6676 17.2168 11.3623 16.9235 11.2059L9.42354 7.20586ZM14.5875 12L9.90001 14.5V9.49998L14.5875 12Z"/></svg>

<svg xmlns="http://www.w3.org/2000/svg" width="24" height="24"><path fill-rule="evenodd" d="M3.9 12a8.1 8.1 0 1 1 16.2 0 8.1 8.1 0 0 1-16.2 0ZM12 2.1c-5.468 0-9.9 4.432-9.9 9.9s4.432 9.9 9.9 9.9 9.9-4.432 9.9-9.9-4.432-9.9-9.9-9.9ZM9.424 7.206A.9.9 0 0 0 8.1 8v8a.9.9 0 0 0 1.324.794l7.5-4a.9.9 0 0 0 0-1.588l-7.5-4ZM14.588 12 9.9 14.5v-5l4.688 2.5Z" clip-rule="evenodd"/></svg>
